app/img/product/ic_chatbot.svg

<svg width="141" height="121" viewBox="0 0 141 121" fill="none" xmlns="http://www.w3.org/2000/svg">
    <g filter="url(#filter0_i)">
        <rect y="0.482666" width="116.076" height="101.858" rx="10" fill="url(#paint0_linear)"/>
    </g>
    <rect x="0.5" y="0.982666" width="115.076" height="100.858" rx="9.5" stroke="#FAFAFA" stroke-opacity="0.1"/>
    <rect x="11.7385" y="17.2444" width="65.2112" height="10.3147" rx="5.15735" fill="#131DAA" fill-opacity="0.37"/>
    <rect x="12.2385" y="17.7444" width="64.2112" height="9.3147" rx="4.65735" stroke="#80FF9F" stroke-opacity="0.14"/>
    <rect x="92.5996" y="17.2441" width="13.0422" height="10.3147" rx="5.15735" fill="#022AF0" fill-opacity="0.36"/>
    <rect x="93.0996" y="17.7441" width="12.0422" height="9.3147" rx="4.65735" stroke="#80FF9F" stroke-opacity="0.14"/>
    <rect x="11.7378" y="44.3201" width="50.8647" height="43.8375" rx="5" fill="#0A1193" fill-opacity="0.4"/>
    <rect x="12.2378" y="44.8201" width="49.8647" height="42.8375" rx="4.5" stroke="#80FF9F" stroke-opacity="0.14"/>
    <rect width="41.7352" height="16.7614" rx="5" transform="matrix(-1 0 0 1 109.554 44.3201)" fill="#131DAA"
          fill-opacity="0.12"/>
    <rect x="-0.5" y="0.5" width="40.7352" height="15.7614" rx="4.5" transform="matrix(-1 0 0 1 108.554 44.3201)"
          stroke="#80FF9F" stroke-opacity="0.14"/>
    <rect width="41.7352" height="16.7614" rx="5" transform="matrix(-1 0 0 1 109.554 66.239)" fill="#131DAA"
          fill-opacity="0.23"/>
    <rect x="-0.5" y="0.5" width="40.7352" height="15.7614" rx="4.5" transform="matrix(-1 0 0 1 108.554 66.239)"
          stroke="#80FF9F" stroke-opacity="0.14"/>
    <path d="M139 80.5574H121V70.6715C121 70.1471 120.789 69.6442 120.414 69.2734C120.039 68.9026 119.53 68.6943 119 68.6943H79C78.4696 68.6943 77.9609 68.9026 77.5858 69.2734C77.2107 69.6442 77 70.1471 77 70.6715V102.306C77 102.831 77.2107 103.334 77.5858 103.704C77.9609 104.075 78.4696 104.283 79 104.283H84.17L87.59 107.655C87.9647 108.023 88.4716 108.229 89 108.229C89.5284 108.229 90.0353 108.023 90.41 107.655L93.83 104.283H97V114.169C97 114.694 97.2107 115.197 97.5858 115.567C97.9609 115.938 98.4696 116.146 99 116.146H124.17L127.59 119.518C127.965 119.886 128.472 120.092 129 120.092C129.528 120.092 130.035 119.886 130.41 119.518L133.83 116.146H139C139.53 116.146 140.039 115.938 140.414 115.567C140.789 115.197 141 114.694 141 114.169V82.5345C141 82.0102 140.789 81.5073 140.414 81.1365C140.039 80.7657 139.53 80.5574 139 80.5574ZM97 82.5345V100.329H93C92.4704 100.331 91.9634 100.541 91.59 100.912L89 103.463L86.41 100.912C86.0366 100.541 85.5296 100.331 85 100.329H81V72.6487H117V80.5574H99C98.4696 80.5574 97.9609 80.7657 97.5858 81.1365C97.2107 81.5073 97 82.0102 97 82.5345ZM111 100.329C110.604 100.329 110.218 100.213 109.889 99.9959C109.56 99.7786 109.304 99.4698 109.152 99.1085C109.001 98.7473 108.961 98.3497 109.038 97.9662C109.116 97.5826 109.306 97.2304 109.586 96.9538C109.865 96.6773 110.222 96.489 110.61 96.4127C110.998 96.3364 111.4 96.3756 111.765 96.5252C112.131 96.6749 112.443 96.9283 112.663 97.2535C112.883 97.5786 113 97.9609 113 98.3519C113 98.8763 112.789 99.3792 112.414 99.75C112.039 100.121 111.53 100.329 111 100.329ZM119 100.329C118.604 100.329 118.218 100.213 117.889 99.9959C117.56 99.7786 117.304 99.4698 117.152 99.1085C117.001 98.7473 116.961 98.3497 117.038 97.9662C117.116 97.5826 117.306 97.2304 117.586 96.9538C117.865 96.6773 118.222 96.489 118.61 96.4127C118.998 96.3364 119.4 96.3756 119.765 96.5252C120.131 96.6749 120.443 96.9283 120.663 97.2535C120.883 97.5786 121 97.9609 121 98.3519C121 98.8763 120.789 99.3792 120.414 99.75C120.039 100.121 119.53 100.329 119 100.329ZM127 100.329C126.604 100.329 126.218 100.213 125.889 99.9959C125.56 99.7786 125.304 99.4698 125.152 99.1085C125.001 98.7473 124.961 98.3497 125.038 97.9662C125.116 97.5826 125.306 97.2304 125.586 96.9538C125.865 96.6773 126.222 96.489 126.61 96.4127C126.998 96.3364 127.4 96.3756 127.765 96.5252C128.131 96.6749 128.443 96.9283 128.663 97.2535C128.883 97.5786 129 97.9609 129 98.3519C129 98.8763 128.789 99.3792 128.414 99.75C128.039 100.121 127.53 100.329 127 100.329Z"
          fill="url(#paint1_linear)"/>
    <defs>
        <filter id="filter0_i" x="0" y="0.482666" width="116.076" height="105.858" filterUnits="userSpaceOnUse"
                color-interpolation-filters="sRGB">
            <feFlood flood-opacity="0" result="BackgroundImageFix"/>
            <feBlend mode="normal" in="SourceGraphic" in2="BackgroundImageFix" result="shape"/>
            <feColorMatrix in="SourceAlpha" type="matrix" values="0 0 0 0 0 0 0 0 0 0 0 0 0 0 0 0 0 0 127 0"
                           result="hardAlpha"/>
            <feOffset dy="4"/>
            <feGaussianBlur stdDeviation="15"/>
            <feComposite in2="hardAlpha" operator="arithmetic" k2="-1" k3="1"/>
            <feColorMatrix type="matrix" values="0 0 0 0 0.5 0 0 0 0 1 0 0 0 0 0.625065 0 0 0 1 0"/>
            <feBlend mode="normal" in2="shape" result="effect1_innerShadow"/>
        </filter>
        <linearGradient id="paint0_linear" x1="-97.2424" y1="-71.3317" x2="119.75" y2="113.509"
                        gradientUnits="userSpaceOnUse">
            <stop stop-color="#0125DA"/>
            <stop offset="1" stop-color="#0125DA" stop-opacity="0"/>
        </linearGradient>
        <linearGradient id="paint1_linear" x1="77" y1="61.2799" x2="156.684" y2="132.872"
                        gradientUnits="userSpaceOnUse">
            <stop stop-color="#80FF9F"/>
            <stop offset="1" stop-color="#56CCF2"/>
        </linearGradient>
    </defs>
</svg>

<svg width="141" height="121" fill="none" xmlns="http://www.w3.org/2000/svg"><g filter="url(#a)"><rect y=".483" width="116.076" height="101.858" rx="10" fill="url(#b)"/></g><rect x=".5" y=".983" width="115.076" height="100.858" rx="9.5" stroke="#FAFAFA" stroke-opacity=".1"/><rect x="11.739" y="17.244" width="65.211" height="10.315" rx="5.157" fill="#131DAA" fill-opacity=".37"/><rect x="12.239" y="17.744" width="64.211" height="9.315" rx="4.657" stroke="#80FF9F" stroke-opacity=".14"/><rect x="92.6" y="17.244" width="13.042" height="10.315" rx="5.157" fill="#022AF0" fill-opacity=".36"/><rect x="93.1" y="17.744" width="12.042" height="9.315" rx="4.657" stroke="#80FF9F" stroke-opacity=".14"/><rect x="11.738" y="44.32" width="50.865" height="43.837" rx="5" fill="#0A1193" fill-opacity=".4"/><rect x="12.238" y="44.82" width="49.865" height="42.837" rx="4.5" stroke="#80FF9F" stroke-opacity=".14"/><rect width="41.735" height="16.761" rx="5" transform="matrix(-1 0 0 1 109.554 44.32)" fill="#131DAA" fill-opacity=".12"/><rect x="-.5" y=".5" width="40.735" height="15.761" rx="4.5" transform="matrix(-1 0 0 1 108.554 44.32)" stroke="#80FF9F" stroke-opacity=".14"/><rect width="41.735" height="16.761" rx="5" transform="matrix(-1 0 0 1 109.554 66.239)" fill="#131DAA" fill-opacity=".23"/><rect x="-.5" y=".5" width="40.735" height="15.761" rx="4.5" transform="matrix(-1 0 0 1 108.554 66.239)" stroke="#80FF9F" stroke-opacity=".14"/><path d="M139 80.557h-18v-9.886c0-.524-.211-1.027-.586-1.398a2.012 2.012 0 0 0-1.414-.579H79c-.53 0-1.04.209-1.414.58-.375.37-.586.873-.586 1.397v31.635c0 .525.21 1.028.586 1.398a2.01 2.01 0 0 0 1.414.579h5.17l3.42 3.372c.375.368.882.574 1.41.574.528 0 1.035-.206 1.41-.574l3.42-3.372H97v9.886c0 .525.21 1.028.586 1.398a2.01 2.01 0 0 0 1.414.579h25.17l3.42 3.372c.375.368.882.574 1.41.574.528 0 1.035-.206 1.41-.574l3.42-3.372H139a2.01 2.01 0 0 0 1.414-.579c.375-.37.586-.873.586-1.398V82.534c0-.524-.211-1.027-.586-1.398a2.012 2.012 0 0 0-1.414-.579Zm-42 1.977v17.795h-4a2.012 2.012 0 0 0-1.41.583L89 103.463l-2.59-2.551a2.012 2.012 0 0 0-1.41-.583h-4v-27.68h36v7.908H99c-.53 0-1.04.209-1.414.58-.375.37-.586.873-.586 1.397Zm14 17.795c-.396 0-.782-.116-1.111-.333a1.96 1.96 0 0 1-.303-3.042 2.02 2.02 0 0 1 2.179-.429c.366.15.678.403.898.729a1.96 1.96 0 0 1-.249 2.496 2.01 2.01 0 0 1-1.414.579Zm8 0c-.396 0-.782-.116-1.111-.333a1.96 1.96 0 0 1-.303-3.042 2.02 2.02 0 0 1 2.179-.429c.366.15.678.403.898.729a1.96 1.96 0 0 1-.249 2.496 2.01 2.01 0 0 1-1.414.579Zm8 0c-.396 0-.782-.116-1.111-.333a1.96 1.96 0 0 1-.303-3.042 2.02 2.02 0 0 1 2.179-.429c.366.15.678.403.898.729a1.96 1.96 0 0 1-.249 2.496 2.01 2.01 0 0 1-1.414.579Z" fill="url(#c)"/><defs><linearGradient id="b" x1="-97.242" y1="-71.332" x2="119.75" y2="113.509" gradientUnits="userSpaceOnUse"><stop stop-color="#0125DA"/><stop offset="1" stop-color="#0125DA" stop-opacity="0"/></linearGradient><linearGradient id="c" x1="77" y1="61.28" x2="156.684" y2="132.872" gradientUnits="userSpaceOnUse"><stop stop-color="#80FF9F"/><stop offset="1" stop-color="#56CCF2"/></linearGradient><filter id="a" x="0" y=".483" width="116.076" height="105.858" filterUnits="userSpaceOnUse" color-interpolation-filters="sRGB"><feFlood flood-opacity="0" result="BackgroundImageFix"/><feBlend in="SourceGraphic" in2="BackgroundImageFix" result="shape"/><feColorMatrix in="SourceAlpha" values="0 0 0 0 0 0 0 0 0 0 0 0 0 0 0 0 0 0 127 0" result="hardAlpha"/><feOffset dy="4"/><feGaussianBlur stdDeviation="15"/><feComposite in2="hardAlpha" operator="arithmetic" k2="-1" k3="1"/><feColorMatrix values="0 0 0 0 0.5 0 0 0 0 1 0 0 0 0 0.625065 0 0 0 1 0"/><feBlend in2="shape" result="effect1_innerShadow"/></filter></defs></svg>
